X: 5917
T: Camembert, The
R: waltz
M: 3/4
K: Gminor
"Gm"DG AB AG|"Cm"E4D2|"A7"^C=E A^c =ec|"D"d4dc|"Gm"Bd gd BG|
"F"Ac fc AF|"Eb"GB ed cB|"D7"B3A =FE|"Gm"DG AB AG|"Cm"E4D2|
"A7"^C=E A^c =ec|"D"d4dc|"Gm"Bd gd BG|"F"Ac fc AF|"Cm"Ge Ec "D7"A,^F|"Gm"G3||
|:AG^F|"F"=F3A ce|"Bb"ed BFD2|"D"^F2D=E FA|"Gm"AG DB,G,2|
"Cm"G,C EG cG|"Gm"G,B, DG cG|1 "D7"D^F Ac BA|"G"G3:|2 "D7"D^F Ad cA|"G"G5||

